components/ui-node-icon/src/noNode/noNode.large.svg

<svg width="32" height="32" viewBox="0 0 32 32" fill="none" xmlns="http://www.w3.org/2000/svg">
  <path fill-rule="evenodd" clip-rule="evenodd" d="M10.1132 11.2517C10.6038 8.70793 12.65 7 15.5 7C18.28 7 21 8.91314 21 11.8598C21 13.9843 18.7247 15.5288 17.112 16.6235C17.0482 16.6668 16.9855 16.7094 16.9239 16.7513C16.3106 17.169 16.1261 18.1108 16.0843 18.8734C16.0514 19.4725 15.5826 20 14.9826 20H14.6667C14.1144 20 13.6667 19.5523 13.6667 19V17.5093C13.6667 16.5873 14.7008 15.9031 15.8178 15.1641C17.1295 14.2962 18.5555 13.3527 18.5555 11.8598C18.5555 10.3588 16.9239 9.42991 15.5 9.42991C14.5065 9.42991 13.1092 9.78901 12.621 11.2629C12.4088 11.9037 11.8972 12.4673 11.2222 12.4673C10.5472 12.4673 9.98541 11.9145 10.1132 11.2517ZM15 25C14.4477 25 14 24.5523 14 24C14 23.4477 14.4477 23 15 23H16C16.5523 23 17 23.4477 17 24C17 24.5523 16.5523 25 16 25H15Z" fill="var(--tbl--colors--icons--output--primary)"/>
</svg>

<svg xmlns="http://www.w3.org/2000/svg" width="32" height="32" fill="none" viewBox="0 0 32 32">
  <path fill="var(--tbl--colors--icons--output--primary)" fill-rule="evenodd" d="M10.113 11.252C10.603 8.708 12.65 7 15.5 7c2.78 0 5.5 1.913 5.5 4.86 0 2.124-2.275 3.669-3.888 4.764l-.188.127c-.613.418-.798 1.36-.84 2.122-.033.6-.501 1.127-1.101 1.127h-.316a1 1 0 0 1-1-1v-1.49c0-.923 1.034-1.607 2.15-2.346 1.313-.868 2.738-1.811 2.738-3.304 0-1.501-1.631-2.43-3.055-2.43-.993 0-2.39.359-2.879 1.833-.212.64-.724 1.204-1.399 1.204s-1.237-.553-1.109-1.215ZM15 25a1 1 0 1 1 0-2h1a1 1 0 1 1 0 2h-1Z" clip-rule="evenodd"/>
</svg>
